;FLAVOR:Marlin
;TIME:4296.78
;Filament used:4.20m
;Layer height:0.2
; HEADER_BLOCK_START
; generated by OrcaSlicer 2.3.2 on 2026-06-15 at 16:05:51
; total layer number: 240
; filament_density: 1.24
; filament_diameter: 1.75
; max_z_height: 48.00
; filament: 1
; HEADER_BLOCK_END

; external perimeters extrusion width = 0.42mm
; perimeters extrusion width = 0.45mm
; infill extrusion width = 0.45mm
; solid infill extrusion width = 0.42mm
; top infill extrusion width = 0.42mm
; first layer extrusion width = 0.49mm

; EXECUTABLE_BLOCK_START
;TYPE:Custom
START_PRINT EXTRUDER_TEMP=210 BED_TEMP=55
G90
G21
M82 ; use absolute distances for extrusion
G92 E0
; Filament gcode
M106 S0
;LAYER_CHANGE
;Z:0.2
;HEIGHT:0.2
;BEFORE_LAYER_CHANGE
;0.2


G1 E-1.2 F2400
G92 E0
;AFTER_LAYER_CHANGE
;0.2
;_SET_FAN_SPEED_CHANGING_LAYER
SET_VELOCITY_LIMIT ACCEL=500 ACCEL_TO_DECEL=250
; printing object 3dbenchy.stl id:0 copy 0
G1 X114.508 Y116.189 F10800
G1 Z.6
G1 Z.2
G1 E1.2 F1800
;TYPE:Inner wall
;WIDTH:0.489999
G1 F1200
G1 X114.802 Y115.919 E1.21456
G1 X115.123 Y115.483 E1.23426
G1 X115.38 Y114.991 E1.25448
G1 X116.121 Y113.078 E1.32923
G1 X116.192 Y113.27 E1.33668
G1 X116.447 Y113.694 E1.35473
G1 X116.597 Y113.851 E1.36262
G1 X116.986 Y114.114 E1.37974
G1 X117.373 Y114.225 E1.39439
G1 X117.714 Y114.261 E1.40691
G1 X118.23 Y114.236 E1.42571
G1 X117.727 Y114.593 E1.44816
G1 X117.057 Y115.016 E1.47705
G1 X116.537 Y115.31 E1.49881
G1 X115.858 Y115.65 E1.52647
G1 X115.024 Y116.007 E1.5595
G1 X114.546 Y116.175 E1.57799
G1 E.73799 F2400
;WIPE_START
G1 F1200
G1 X114.802 Y115.919 E.60727
G1 X115.123 Y115.483 E.41257
G1 X115.167 Y115.398 E.37799
;WIPE_END
G92 E0
G1 F10800
G1 X115.743 Y115.308 Z0.230769
G1 X116.294 Y115.496 Z0.261538
G1 X116.695 Y115.918 Z0.292308
G1 X116.853 Y116.479 Z0.323077
G1 X116.733 Y117.049 Z0.353846
G1 X116.362 Y117.498 Z0.384615
G1 X115.825 Y117.723 Z0.415385
G1 X115.244 Y117.672 Z0.446154
G1 X114.754 Y117.358 Z0.476923
G1 X114.466 Y116.851 Z0.507692
G1 X114.446 Y116.269 Z0.538462
G1 X114.699 Y115.745 Z0.569231
G1 X115.167 Y115.398 Z0.6
G1 X120.755 Y113.059 Z.6
G1 Z.2
G1 E1.2 F1800
;TYPE:Outer wall
;WIDTH:0.652846
G1 F1200
G1 X120.526 Y113.289 E1.21615
G1 E.37615 F2400
;WIPE_START
G1 F1200
G1 X120.755 Y113.059 E.01615
;WIPE_END
G92 E0
G1 F10800
G1 X120.872 Y112.488 Z0.230769
G1 X121.241 Y112.037 Z0.261538
G1 X121.777 Y111.809 Z0.292308
G1 X122.357 Y111.856 Z0.323077
G1 X122.85 Y112.168 Z0.353846
G1 X123.141 Y112.672 Z0.384615
G1 X123.164 Y113.254 Z0.415385
G1 X122.914 Y113.78 Z0.446154
G1 X122.448 Y114.13 Z0.476923
G1 X121.873 Y114.223 Z0.507692
G1 X121.32 Y114.038 Z0.538462
G1 X120.917 Y113.618 Z0.569231
G1 X120.755 Y113.059 Z0.6
G1 X120.676 Y111.068 Z.6
G1 Z.2
G1 E1.2 F1800
;TYPE:Inner wall
;WIDTH:0.53452
G1 F1200
G1 X121.12 Y110.432 E1.23105
;WIDTH:0.538538
G1 X121.444 Y109.878 E1.25698
G1 X121.596 Y109.421 E1.27646
G1 X121.925 Y110.005 E1.30354
G1 X121.873 Y110.127 E1.30889
G1 X121.461 Y110.798 E1.3407
;WIDTH:0.53452
G1 X121.101 Y111.312 E1.36585
G1 X120.931 Y111.178 E1.37452
G1 X120.713 Y111.084 E1.38403
G1 E.54403 F2400
;WIPE_START
G1 F1200
G1 X121.12 Y110.432 E.26751
G1 X121.237 Y110.232 E.18403
;WIPE_END
G92 E0
G1 F10800
G1 X121 Y109.7 Z0.230769
G1 X121.037 Y109.119 Z0.261538
G1 X121.34 Y108.621 Z0.292308
G1 X121.84 Y108.322 Z0.323077
G1 X122.421 Y108.289 Z0.353846
G1 X122.952 Y108.53 Z0.384615
G1 X123.309 Y108.99 Z0.415385
G1 X123.412 Y109.563 Z0.446154
G1 X123.237 Y110.119 Z0.476923
; ... [trimmed: motion commands omitted to keep fixture small] ...
G1 F923
G1 X105.948 Y112.043 E2.58179
;WIDTH:0.585628
G1 X105.409 Y112.171 E2.6063
;WIDTH:0.587039
G1 X105.176 Y112.185 E2.61667
;WIDTH:0.588957
G1 X104.676 Y112.122 E2.63906
G1 X104.279 Y111.99 E2.65767
;WIDTH:0.586258
G1 X103.9 Y111.771 E2.67706
;WIDTH:0.589878
G1 X103.582 Y111.488 E2.69604
G1 X103.282 Y111.088 E2.71833
;WIDTH:0.582289
G1 X103.078 Y110.612 E2.74107
;WIDTH:0.577649
G1 X102.991 Y110.099 E2.76376
;WIDTH:0.581666
G1 X103.038 Y109.538 E2.78846
;WIDTH:0.582957
G1 X103.174 Y109.114 E2.80804
G1 X103.515 Y108.585 E2.83573
;WIDTH:0.584579
G1 X103.674 Y108.415 E2.84604
G1 X104.122 Y108.088 E2.87051
;WIDTH:0.590113
G1 X104.397 Y107.965 E2.88395
G1 X104.888 Y107.833 E2.90664
;WIDTH:0.584195
G1 X105.451 Y107.83 E2.93145
;WIDTH:0.582304
G1 X106.001 Y107.977 E2.95648
;WIDTH:0.587998
G1 X106.474 Y108.247 E2.98066
G1 X106.872 Y108.621 E3.00495
;WIDTH:0.580524
G1 X107.149 Y109.058 E3.02761
;WIDTH:0.590287
G1 X107.327 Y109.657 E3.05545
;WIDTH:0.59111
G1 X107.352 Y110.053 E3.07318
G1 X107.265 Y110.648 E3.10002
;WIDTH:0.57928
G1 X107.054 Y111.117 E3.1225
G1 X106.768 Y111.498 E3.14334
;WIDTH:0.585894
G1 X106.338 Y111.849 E3.1679
G1 X106.111 Y111.962 E3.17909
SET_VELOCITY_LIMIT ACCEL=700 ACCEL_TO_DECEL=350
G1 X105.866 Y111.559 F10800
;TYPE:Outer wall
;WIDTH:0.419999
G1 F923
G1 X105.837 Y111.575 E3.18012
G1 X105.298 Y111.703 E3.19715
G1 X104.737 Y111.643 E3.21447
G1 X104.305 Y111.471 E3.22876
G1 X103.967 Y111.195 E3.24218
G1 X103.65 Y110.774 E3.25835
G1 X103.501 Y110.303 E3.27354
G1 X103.472 Y109.971 E3.28379
G1 X103.509 Y109.636 E3.29414
G1 X103.603 Y109.329 E3.30402
G1 X103.916 Y108.847 E3.32167
G1 X104.327 Y108.533 E3.33757
G1 X104.526 Y108.431 E3.34444
G1 X105.028 Y108.296 E3.3604
G1 X105.533 Y108.336 E3.37596
G1 X105.803 Y108.416 E3.38461
G1 X106.258 Y108.679 E3.40079
G1 X106.588 Y109.048 E3.41597
G1 X106.737 Y109.309 E3.42523
G1 X106.876 Y109.846 E3.44227
G1 X106.821 Y110.457 E3.46112
G1 X106.662 Y110.843 E3.47393
G1 X106.361 Y111.222 E3.48882
G1 X106.096 Y111.433 E3.49921
G1 X105.901 Y111.54 E3.50604
; stop printing object 3dbenchy.stl id:0 copy 0
G1 E2.66604 F2400
;WIPE_START
G1 F4800
G1 X105.837 Y111.575 E2.63954
G1 X105.298 Y111.703 E2.44001
G1 X104.928 Y111.664 E2.30604
;WIPE_END
G92 E0
M106 S0
;TYPE:Custom
; filament end gcode
PRINT_END
; EXECUTABLE_BLOCK_END

; filament used [mm] = 4201.91
; filament used [cm3] = 10.11
; filament used [g] = 12.53
; filament cost = 0.25
; total filament used [g] = 12.53
; total filament cost = 0.25
; total layers count = 240
; estimated printing time (normal mode) = 1h 11m 36s
; estimated first layer printing time (normal mode) = 1s

; CONFIG_BLOCK_START
; accel_to_decel_enable = 1
; accel_to_decel_factor = 50%
; activate_air_filtration = 0
; activate_chamber_temp_control = 0
; adaptive_bed_mesh_margin = 0
; adaptive_pressure_advance = 0
; adaptive_pressure_advance_bridges = 0
; adaptive_pressure_advance_model = "0,0,0\n0,0,0"
; adaptive_pressure_advance_overhangs = 0
; additional_cooling_fan_speed = 70
; align_infill_direction_to_model = 0
; alternate_extra_wall = 0
; auxiliary_fan = 0
; bbl_calib_mark_logo = 1
; bbl_use_printhost = 0
; bed_custom_model = 
; bed_custom_texture = 
; bed_exclude_area = 0x0
; bed_mesh_max = 99999,99999
; bed_mesh_min = -99999,-99999
; bed_mesh_probe_distance = 50,50
; bed_temperature_formula = by_highest_temp
; before_layer_change_gcode = ;BEFORE_LAYER_CHANGE\n;[layer_z]\n\n
; best_object_pos = 0.5,0.5
; bottom_shell_layers = 5
; bottom_shell_thickness = 0
; bottom_solid_infill_flow_ratio = 1
; bottom_surface_density = 100%
; bottom_surface_pattern = monotonic
; bridge_acceleration = 50%
; bridge_angle = 0
; bridge_density = 100%
; bridge_flow = 0.95
; bridge_no_support = 0
; bridge_speed = 45
; brim_ears_detection_length = 1
; brim_ears_max_angle = 125
; brim_object_gap = 0.1
; brim_type = no_brim
; brim_use_efc_outline = 0
; brim_width = 5
; calib_flowrate_topinfill_special_order = 0
; chamber_temperature = 0
; change_extrusion_role_gcode = 
; change_filament_gcode = M600
; close_fan_the_first_x_layers = 1
; complete_print_exhaust_fan_speed = 70
; cool_plate_temp = 35
; cool_plate_temp_initial_layer = 35
; cooling_tube_length = 5
; cooling_tube_retraction = 91.5
; counterbore_hole_bridging = none
; curr_bed_type = High Temp Plate
; default_acceleration = 2000
; default_bed_type = 
; default_filament_colour = ""
; default_filament_profile = "Creality Generic PLA @Ender-3V3-all"
; default_jerk = 0
; default_junction_deviation = 0
; default_nozzle_volume_type = Standard
; default_print_profile = 0.20mm Standard @Creality Ender3V3SE 0.4
; deretraction_speed = 30
; detect_narrow_internal_solid_infill = 1
; detect_overhang_wall = 1
; detect_thin_wall = 1
; different_settings_to_system = bottom_shell_layers;bridge_speed;default_acceleration;initial_layer_infill_speed;initial_layer_line_width;initial_layer_speed;inner_wall_acceleration;inner_wall_speed;internal_solid_infill_speed;outer_wall_acceleration;outer_wall_speed;top_shell_layers;top_surface_acceleration;top_surface_speed;travel_speed;wall_loops;hot_plate_temp;nozzle_temperature;nozzle_temperature_initial_layer;nozzle_temperature_range_high;before_layer_change_gcode;gcode_flavor;layer_change_gcode;machine_end_gcode;machine_max_acceleration_x;machine_max_acceleration_y;machine_pause_gcode;machine_start_gcode;use_relative_e_distances
; disable_m73 = 1
; dont_filter_internal_bridges = disabled
; dont_slow_down_outer_wall = 0
; draft_shield = disabled
; during_print_exhaust_fan_speed = 70
; elefant_foot_compensation = 0
; elefant_foot_compensation_layers = 1
; emit_machine_limits_to_gcode = 1
; enable_arc_fitting = 0
; enable_extra_bridge_layer = disabled
; enable_filament_ramming = 1
; enable_long_retraction_when_cut = 0
; enable_overhang_bridge_fan = 1
; enable_overhang_speed = 1
; enable_power_loss_recovery = printer_configuration
; enable_pressure_advance = 0
; enable_prime_tower = 0
; enable_support = 0
; enable_tower_interface_cooldown_during_tower = 0
; enable_tower_interface_features = 0
; enable_wrapping_detection = 0
; enforce_support_layers = 0
; eng_plate_temp = 0
; eng_plate_temp_initial_layer = 0
; ensure_vertical_shell_thickness = ensure_all
; exclude_object = 0
; extra_loading_move = -2
; extra_perimeters_on_overhangs = 0
; extra_solid_infills = 
; extruder_ams_count = 1#0|4#0;1#0|4#0
; extruder_clearance_height_to_lid = 34
; extruder_clearance_height_to_rod = 47
; extruder_clearance_radius = 90
; extruder_colour = #26A69A
; extruder_offset = 0x0
; extruder_printable_area = 
; extruder_printable_height = 0
; extruder_type = Direct Drive
; extruder_variant_list = "Direct Drive Standard"
; extrusion_rate_smoothing_external_perimeter_only = 0
; fan_cooling_layer_time = 100
; fan_kickstart = 0
; fan_max_speed = 100
; fan_min_speed = 100
; fan_speedup_overhangs = 1
; fan_speedup_time = 0
; filament_adaptive_volumetric_speed = 0
; filament_adhesiveness_category = 0
; filament_change_length = 10
; filament_colour = #26A69A
; filament_colour_type = 1
; filament_cooling_final_speed = 3.4
; filament_cooling_initial_speed = 2.2
; filament_cooling_moves = 4
; filament_cost = 20
; filament_density = 1.24
; filament_diameter = 1.75
; filament_end_gcode = "; filament end gcode\n"
; filament_extruder_variant = "Direct Drive Standard"
; filament_flow_ratio = 0.98
; filament_flush_temp = 0
; filament_flush_volumetric_speed = 0
; filament_ids = OGFL99
; filament_is_support = 0
; filament_loading_speed = 28
; filament_loading_speed_start = 3
; filament_map = 1
; filament_map_mode = Auto For Flush
; filament_max_volumetric_speed = 12
; filament_minimal_purge_on_wipe_tower = 15
; filament_multi_colour = #26A69A
; filament_multitool_ramming = 0
; filament_multitool_ramming_flow = 10
; filament_multitool_ramming_volume = 10
; filament_notes = ""
; filament_printable = 3
; filament_ramming_parameters = "120 100 6.6 6.8 7.2 7.6 7.9 8.2 8.7 9.4 9.9 10.0| 0.05 6.6 0.45 6.8 0.95 7.8 1.45 8.3 1.95 9.7 2.45 10 2.95 7.6 3.45 7.6 3.95 7.6 4.45 7.6 4.95 7.6"
; filament_self_index = 1
; filament_settings_id = "Generic PLA Mate"
; filament_shrink = 100%
; filament_shrinkage_compensation_z = 100%
; filament_soluble = 0
; filament_stamping_distance = 0
; filament_stamping_loading_speed = 0
; filament_start_gcode = "; Filament gcode\n"
; filament_toolchange_delay = 0
; filament_tower_interface_pre_extrusion_dist = 10
; filament_tower_interface_pre_extrusion_length = 0
; filament_tower_interface_print_temp = -1
; filament_tower_interface_purge_volume = 20
; filament_tower_ironing_area = 4
; filament_type = PLA
; filament_unloading_speed = 90
; filament_unloading_speed_start = 100
; filament_vendor = Generic
; file_start_gcode = ;FLAVOR:Marlin\n;TIME:{print_time_sec}\n;Filament used:{used_filament_length}m\n;Layer height:{layer_height}
; filename_format = {input_filename_base}_{filament_type[initial_tool]}_{print_time}.gcode
; fill_multiline = 1
; filter_out_gap_fill = 0
; first_layer_flow_ratio = 1
; first_layer_print_sequence = 0
; flush_into_infill = 0
; flush_into_objects = 0
; flush_into_support = 1
; flush_multiplier = 0.3
; flush_volumes_matrix = 0
; flush_volumes_vector = 140,140
; full_fan_speed_layer = 0
; fuzzy_skin = disabled_fuzzy
; fuzzy_skin_first_layer = 0
; fuzzy_skin_mode = displacement
; fuzzy_skin_noise_type = classic
; fuzzy_skin_octaves = 4
; fuzzy_skin_persistence = 0.5
; fuzzy_skin_point_distance = 0.3
; fuzzy_skin_scale = 1
; fuzzy_skin_thickness = 0.2
; gap_fill_flow_ratio = 1
; gap_fill_target = nowhere
; gap_infill_speed = 50
; gcode_add_line_number = 0
; gcode_comments = 0
; gcode_flavor = klipper
; gcode_label_objects = 1
; grab_length = 0
; has_scarf_joint_seam = 0
; head_wrap_detect_zone = 
; high_current_on_filament_swap = 0
; hole_to_polyhole = 0
; hole_to_polyhole_threshold = 0.01
; hole_to_polyhole_twisted = 1
; host_type = octoprint
; hot_plate_temp = 60
; hot_plate_temp_initial_layer = 55
; idle_temperature = 0
; independent_support_layer_height = 1
; infill_anchor = 400%
; infill_anchor_max = 20
; infill_combination = 0
; infill_combination_max_layer_height = 100%
; infill_direction = 45
; infill_jerk = 9
; infill_lock_depth = 1
; infill_overhang_angle = 60
; infill_shift_step = 0.4
; infill_wall_overlap = 15%
; inherits_group = "0.20mm Standard @Creality Ender3V3SE 0.4";"Generic PLA @System";"Creality Ender-3 V3 SE 0.4 nozzle"
; initial_layer_acceleration = 500
; initial_layer_infill_speed = 40
; initial_layer_jerk = 9
; initial_layer_line_width = 0.49
; initial_layer_min_bead_width = 85%
; initial_layer_print_height = 0.2
; initial_layer_speed = 20
; initial_layer_travel_speed = 100%
; inner_wall_acceleration = 1200
; inner_wall_flow_ratio = 1
; inner_wall_jerk = 9
; inner_wall_line_width = 0.45
; inner_wall_speed = 120
; interface_shells = 0
; interlocking_beam = 0
; interlocking_beam_layer_count = 2
; interlocking_beam_width = 0.8
; interlocking_boundary_avoidance = 2
; interlocking_depth = 2
; interlocking_orientation = 22.5
; internal_bridge_angle = 0
; internal_bridge_density = 100%
; internal_bridge_fan_speed = -1
; internal_bridge_flow = 1
; internal_bridge_speed = 150%
; internal_solid_infill_acceleration = 100%
; internal_solid_infill_flow_ratio = 1
; internal_solid_infill_line_width = 0.42
; internal_solid_infill_pattern = monotonic
; internal_solid_infill_speed = 95
; ironing_angle = 0
; ironing_angle_fixed = 0
; ironing_fan_speed = -1
; ironing_flow = 15%
; ironing_inset = 0
; ironing_pattern = rectilinear
; ironing_spacing = 0.1
; ironing_speed = 20
; ironing_type = no ironing
; is_infill_first = 0
; lateral_lattice_angle_1 = -45
; lateral_lattice_angle_2 = 45
; layer_change_gcode = ;AFTER_LAYER_CHANGE\n;[layer_z]
; layer_height = 0.2
; line_width = 0.46
; long_retractions_when_cut = 0
; long_retractions_when_ec = 0
; machine_end_gcode = PRINT_END
; machine_load_filament_time = 11
; machine_max_acceleration_e = 5000,5000
; machine_max_acceleration_extruding = 2500,2500
; machine_max_acceleration_retracting = 500,500
; machine_max_acceleration_travel = 2500,2500
; machine_max_acceleration_x = 3500,2500
; machine_max_acceleration_y = 3500,2500
; machine_max_acceleration_z = 500,500
; machine_max_jerk_e = 5,5
; machine_max_jerk_x = 10,10
; machine_max_jerk_y = 10,10
; machine_max_jerk_z = 0.4,0.4
; machine_max_junction_deviation = 0.01
; machine_max_speed_e = 40,40
; machine_max_speed_x = 250,250
; machine_max_speed_y = 250,250
; machine_max_speed_z = 5,5
; machine_min_extruding_rate = 0,0
