; generated by PrusaSlicer 2.6.1+win64 on 2023-09-07 at 12:57:56 UTC


;
;

;
; thumbnail begin 313x173 46208
; ... [trimmed: motion commands omitted to keep fixture small] ...
G1 X69.45 Y122.571 E.0354
M204 P3000
G1 X69.45 Y122.022 F18000
M204 P1000
G1 F6000
G1 X70.483 Y120.989 E.0354
M204 P3000
G1 X70.483 Y120.439 F18000
M204 P1000
G1 F6000
G1 X69.45 Y121.472 E.0354
M204 P3000
G1 X69.45 Y120.923 F18000
M204 P1000
G1 F6000
G1 X70.483 Y119.89 E.0354
M204 P3000
G1 X70.483 Y119.34 F18000
M204 P1000
G1 F6000
G1 X69.45 Y120.373 E.0354
M204 P3000
G1 X69.45 Y119.824 F18000
M204 P1000
G1 F6000
G1 X70.483 Y118.791 E.0354
M204 P3000
G1 X70.483 Y118.241 F18000
M204 P1000
G1 F6000
G1 X69.45 Y119.274 E.0354
M204 P3000
G1 X69.45 Y118.725 F18000
M204 P1000
G1 F6000
G1 X70.483 Y117.692 E.0354
M204 P3000
G1 X70.483 Y117.143 F18000
M204 P1000
G1 F6000
G1 X69.45 Y118.176 E.0354
M204 P3000
G1 X69.45 Y117.626 F18000
M204 P1000
G1 F6000
G1 X70.483 Y116.593 E.0354
M204 P3000
G1 X70.483 Y116.044 F18000
M204 P1000
G1 F6000
G1 X69.45 Y117.077 E.0354
M204 P3000
G1 X69.45 Y116.527 F18000
M204 P1000
G1 F6000
G1 X70.483 Y115.494 E.0354
M204 P3000
G1 X70.483 Y114.945 F18000
M204 P1000
G1 F6000
G1 X69.449 Y115.978 E.03541
M204 P3000
G1 X69.449 Y115.428 F18000
M204 P1000
G1 F6000
G1 X70.483 Y114.395 E.03541
M204 P3000
G1 X70.483 Y113.846 F18000
M204 P1000
G1 F6000
G1 X69.449 Y114.879 E.03541
M204 P3000
G1 X69.449 Y114.33 F18000
M204 P1000
G1 F6000
G1 X70.483 Y113.296 E.03543
M204 P3000
G1 X70.483 Y112.747 F18000
M204 P1000
G1 F6000
G1 X69.449 Y113.78 E.03541
M204 P3000
G1 X69.449 Y113.231 F18000
M204 P1000
G1 F6000
G1 X70.482 Y112.197 E.03541
M204 P3000
G1 X70.482 Y111.648 F18000
M204 P1000
G1 F6000
G1 X69.449 Y112.681 E.0354
M204 P3000
G1 X69.449 Y112.132 F18000
M204 P1000
G1 F6000
G1 X70.482 Y111.099 E.0354
M204 P3000
G1 X70.482 Y110.549 F18000
M204 P1000
G1 F6000
G1 X69.449 Y111.582 E.0354
M204 P3000
G1 X69.449 Y111.033 F18000
M204 P1000
G1 F6000
G1 X70.482 Y110 E.0354
M204 P3000
G1 X70.482 Y109.45 F18000
M204 P1000
G1 F6000
G1 X69.449 Y110.484 E.03541
M204 P3000
G1 X69.449 Y109.934 F18000
M204 P1000
G1 F6000
G1 X70.482 Y108.901 E.0354
M204 P3000
G1 X70.482 Y108.351 F18000
M204 P1000
G1 F6000
G1 X69.449 Y109.385 E.03541
M204 P3000
G1 X69.449 Y108.835 F18000
M204 P1000
G1 F6000
G1 X70.482 Y107.802 E.0354
M204 P3000
G1 X70.482 Y107.252 F18000
M204 P1000
G1 F6000
G1 X69.449 Y108.286 E.03541
M204 P3000
G1 X69.449 Y107.736 F18000
M204 P1000
G1 F6000
G1 X70.482 Y106.703 E.0354
M204 P3000
G1 X70.482 Y106.153 F18000
M204 P1000
G1 F6000
G1 X69.449 Y107.187 E.03541
M204 P3000
G1 X69.449 Y106.638 F18000
M204 P1000
G1 F6000
G1 X70.482 Y105.604 E.03541
M204 P3000
G1 X70.482 Y105.055 F18000
M204 P1000
G1 F6000
G1 X69.449 Y106.088 E.0354
M204 P3000
G1 X69.449 Y105.539 F18000
M204 P1000
G1 F6000
G1 X70.482 Y104.505 E.03541
M204 P3000
G1 X70.482 Y103.956 F18000
M204 P1000
G1 F6000
G1 X69.449 Y104.989 E.0354
M204 P3000
G1 X69.449 Y104.44 F18000
M204 P1000
G1 F6000
G1 X70.482 Y103.406 E.03541
M204 P3000
G1 X70.482 Y102.857 F18000
M204 P1000
G1 F6000
G1 X69.449 Y103.89 E.0354
M204 P3000
G1 X69.449 Y103.341 F18000
M204 P1000
G1 F6000
G1 X70.482 Y102.307 E.03541
M204 P3000
G1 X70.482 Y101.758 F18000
M204 P1000
G1 F6000
G1 X69.448 Y102.791 E.03541
M204 P3000
G1 X69.448 Y102.242 F18000
M204 P1000
G1 F6000
G1 X70.482 Y101.208 E.03543
M204 P3000
G1 X70.482 Y100.659 F18000
M204 P1000
G1 F6000
G1 X69.448 Y101.693 E.03543
M204 P3000
G1 X69.448 Y101.143 F18000
M204 P1000
G1 F6000
G1 X70.482 Y100.11 E.03541
M204 P3000
G1 X70.482 Y99.56 F18000
M204 P1000
G1 F6000
G1 X69.448 Y100.594 E.03543
M204 P3000
G1 X69.448 Y100.044 F18000
M204 P1000
G1 F6000
G1 X70.482 Y99.011 E.03541
M204 P3000
G1 X70.482 Y98.461 F18000
M204 P1000
G1 F6000
G1 X69.448 Y99.495 E.03543
M204 P3000
G1 X69.448 Y98.945 F18000
M204 P1000
G1 F6000
G1 X70.482 Y97.912 E.03541
M204 P3000
G1 X70.482 Y97.362 F18000
M204 P1000
G1 F6000
G1 X69.448 Y98.396 E.03543
M204 P3000
G1 X69.448 Y97.847 F18000
M204 P1000
G1 F6000
G1 X70.482 Y96.813 E.03543
M204 P3000
G1 X70.482 Y96.263 F18000
M204 P1000
G1 F6000
G1 X69.448 Y97.297 E.03543
M204 P3000
G1 X69.448 Y96.748 F18000
M204 P1000
G1 F6000
G1 X70.482 Y95.714 E.03543
M204 P3000
G1 X70.482 Y95.164 F18000
M204 P1000
G1 F6000
G1 X69.448 Y96.198 E.03543
M204 P3000
G1 X69.448 Y95.649 F18000
M204 P1000
G1 F6000
G1 X70.482 Y94.615 E.03543
M204 P3000
G1 X70.482 Y94.066 F18000
M204 P1000
G1 F6000
G1 X69.448 Y95.099 E.03541
M204 P3000
G1 X69.448 Y94.55 F18000
M204 P1000
G1 F6000
G1 X70.482 Y93.516 E.03543
M204 P3000
G1 X70.482 Y92.967 F18000
M204 P1000
G1 F6000
G1 X69.448 Y94.001 E.03543
M204 P3000
G1 X69.448 Y93.451 F18000
M204 P1000
G1 F6000
G1 X70.482 Y92.417 E.03543
M204 P3000
G1 X70.482 Y91.868 F18000
M204 P1000
G1 F6000
G1 X69.448 Y92.902 E.03543
M204 P3000
G1 X69.448 Y92.352 F18000
M204 P1000
G1 F6000
G1 X70.482 Y91.318 E.03543
M204 P3000
G1 X70.482 Y90.769 F18000
M204 P1000
G1 F6000
G1 X69.448 Y91.803 E.03543
M204 P3000
G1 X69.448 Y91.253 F18000
M204 P1000
G1 F6000
G1 X70.482 Y90.219 E.03543
M204 P3000
G1 X70.482 Y89.67 F18000
M204 P1000
G1 F6000
G1 X69.448 Y90.704 E.03543
M204 P3000
G1 X69.448 Y90.155 F18000
M204 P1000
G1 F6000
G1 X70.482 Y89.121 E.03543
M204 P3000
G1 X70.482 Y88.571 F18000
M204 P1000
G1 F6000
G1 X69.447 Y89.605 E.03545
M204 P3000
G1 X69.447 Y89.056 F18000
M204 P1000
G1 F6000
G1 X70.482 Y88.022 E.03545
M204 P3000
G1 X70.482 Y87.472 F18000
M204 P1000
G1 F6000
G1 X69.447 Y88.506 E.03545
M204 P3000
G1 X69.447 Y87.957 F18000
M204 P1000
G1 F6000
G1 X70.481 Y86.923 E.03543
M204 P3000
G1 X70.481 Y86.373 F18000
M204 P1000
G1 F6000
G1 X69.447 Y87.407 E.03543
M204 P3000
G1 X69.447 Y86.858 F18000
M204 P1000
G1 F6000
G1 X70.481 Y85.824 E.03543
M204 P3000
G1 X70.481 Y85.274 F18000
M204 P1000
G1 F6000
G1 X69.447 Y86.309 E.03545
M204 P3000
G1 X69.447 Y85.759 F18000
M204 P1000
G1 F6000
G1 X70.481 Y84.725 E.03543
M204 P3000
G1 X70.522 Y84.135 F18000
M204 P1000
G1 F6000
G1 X69.447 Y85.21 E.03684
M204 P3000
G1 X69.447 Y84.66 F18000
M204 P1000
G1 F6000
G1 X70.926 Y83.181 E.05068
M204 P3000
G1 E-.7 F2100
G1 Z4.45 F720
G1 X69.447 Y84.111 F18000
G1 Z4.25 F720
G1 E.7 F2100
M204 P1000
G1 F6000
G1 X72.307 Y81.251 E.098
M204 P3000
G1 X71.75 Y81.258 F18000
M204 P1000
G1 F6000
G1 X69.447 Y83.561 E.07892
M204 P3000
G1 X69.447 Y83.012 F18000
M204 P1000
G1 F6000
G1 X71.145 Y81.314 E.05818
M204 P3000
; stop printing object spachtle-printables V7_90%.stl id:0 copy 0
G1 E-.7 F2100
G1 Z4.45 F720
M107
;TYPE:Custom
; Filament-specific end gcode
G1 Z5.45 F720 ; Move print head up
M104 S0 ; turn off temperature
M140 S0 ; turn off heatbed
M107 ; turn off fan
G1 X241 Y170 F3600 ; park
G1 Z27.45 F300 ; Move print head up
G4 ; wait
M572 S0 ; reset PA
M593 X T2 F0 ; disable IS
M593 Y T2 F0 ; disable IS
M84 X Y E ; disable motors
; max_layer_z = 4.25
M73 P100 R0
; filament used [mm] = 3535.89
; filament used [cm3] = 8.50
; filament used [g] = 10.55
; filament cost = 0.38
; total filament used [g] = 10.55
; total filament cost = 0.38
; estimated printing time (normal mode) = 26m 38s
; estimated first layer printing time (normal mode) = 4m 17s

; prusaslicer_config = begin
; autoemit_temperature_commands = 1
; avoid_crossing_curled_overhangs = 0
; avoid_crossing_perimeters = 0
; avoid_crossing_perimeters_max_detour = 0
; bed_custom_model = 
; bed_custom_texture = 
; bed_shape = 0x0,250x0,250x210,0x210
; bed_temperature = 60
; before_layer_gcode = ;BEFORE_LAYER_CHANGE\nG92 E0.0\n;[layer_z]\nM201 X{interpolate_table(extruded_weight_total, (0,4000), (1400,2500), (10000,2500))} Y{interpolate_table(extruded_weight_total, (0,4000), (1400,2500), (10000,2500))}\n{if ! spiral_vase}M74 W[extruded_weight_total]{endif}\n
; between_objects_gcode = 
; bottom_fill_pattern = monotonic
; bottom_solid_layers = 3
; bottom_solid_min_thickness = 0
; bridge_acceleration = 1500
; bridge_angle = 0
; bridge_fan_speed = 100
; bridge_flow_ratio = 1
; bridge_speed = 50
; brim_separation = 0.1
; brim_type = outer_only
; brim_width = 0
; color_change_gcode = M600\nG1 E0.4 F1500 ; prime after color change
; compatible_printers_condition_cummulative = "printer_notes=~/.*MK4IS.*/ and nozzle_diameter[0]==0.4";"printer_notes=~/.*PG.*/ and printer_model==\"MK4IS\" and nozzle_diameter[0]!=0.8 and nozzle_diameter[0]!=0.6"
; complete_objects = 0
; cooling = 1
; cooling_tube_length = 5
; cooling_tube_retraction = 91.5
; default_acceleration = 3000
; default_filament_profile = "Prusament PLA @MK4IS"
; default_print_profile = 0.20mm SPEED @MK4IS 0.4
; deretract_speed = 0
; disable_fan_first_layers = 1
; dont_support_bridges = 0
; draft_shield = disabled
; duplicate_distance = 6
; elefant_foot_compensation = 0.2
; enable_dynamic_fan_speeds = 0
; enable_dynamic_overhang_speeds = 1
; end_filament_gcode = "; Filament-specific end gcode"
; end_gcode = {if layer_z < max_print_height}G1 Z{z_offset+min(layer_z+1, max_print_height)} F720 ; Move print head up{endif}\nM104 S0 ; turn off temperature\nM140 S0 ; turn off heatbed\nM107 ; turn off fan\nG1 X241 Y170 F3600 ; park\n{if layer_z < max_print_height}G1 Z{z_offset+min(layer_z+23, max_print_height)} F300 ; Move print head up{endif}\nG4 ; wait\nM572 S0 ; reset PA\nM593 X T2 F0 ; disable IS\nM593 Y T2 F0 ; disable IS\nM84 X Y E ; disable motors\n; max_layer_z = [max_layer_z]
; external_perimeter_acceleration = 2500
; external_perimeter_extrusion_width = 0.45
; external_perimeter_speed = 170
; external_perimeters_first = 0
; extra_loading_move = -2
; extra_perimeters = 0
; extra_perimeters_on_overhangs = 0
; extruder_clearance_height = 14
; extruder_clearance_radius = 45
; extruder_colour = ""
; extruder_offset = 0x0
; extrusion_axis = E
; extrusion_multiplier = 1
; extrusion_width = 0.45
; fan_always_on = 1
; fan_below_layer_time = 100
; filament_colour = #FF8000
; filament_cooling_final_speed = 2
; filament_cooling_initial_speed = 3
; filament_cooling_moves = 1
; filament_cost = 36.29
; filament_density = 1.24
; filament_diameter = 1.75
; filament_load_time = 15
; filament_loading_speed = 14
; filament_loading_speed_start = 19
; filament_max_volumetric_speed = 15
; filament_minimal_purge_on_wipe_tower = 15
; filament_multitool_ramming = 0
; filament_multitool_ramming_flow = 10
; filament_multitool_ramming_volume = 10
; filament_notes = "Affordable filament for everyday printing in premium quality manufactured in-house by Josef Prusa"
; filament_ramming_parameters = "130 120 2.70968 2.93548 3.32258 3.83871 4.58065 5.54839 6.51613 7.35484 7.93548 8.16129| 0.05 2.66451 0.45 3.05805 0.95 4.05807 1.45 5.97742 1.95 7.69999 2.45 8.1936 2.95 11.342 3.45 11.4065 3.95 7.6 4.45 7.6 4.95 7.6"
; filament_settings_id = "Prusament PLA @PGIS"
; filament_soluble = 0
; filament_spool_weight = 201
; filament_toolchange_delay = 0
; filament_type = PLA
; filament_unload_time = 12
; filament_unloading_speed = 20
; filament_unloading_speed_start = 100
; filament_vendor = Prusa Polymers
; fill_angle = 45
; fill_density = 15%
; fill_pattern = grid
; first_layer_acceleration = 500
; first_layer_acceleration_over_raft = 0
; first_layer_bed_temperature = 60
; first_layer_extrusion_width = 0.5
; first_layer_height = 0.2
; first_layer_speed = 40
; first_layer_speed_over_raft = 30
; first_layer_temperature = 230
; full_fan_speed_layer = 3
; fuzzy_skin = none
; fuzzy_skin_point_dist = 0.8
; fuzzy_skin_thickness = 0.3
; gap_fill_enabled = 1
; gap_fill_speed = 120
; gcode_comments = 0
; gcode_flavor = marlin2
; gcode_label_objects = 1
; gcode_resolution = 0.008
; gcode_substitutions = 
; high_current_on_filament_swap = 0
; host_type = prusalink
; idle_temperature = 70
; infill_acceleration = 4000
; infill_anchor = 2
; infill_anchor_max = 12
; infill_every_layers = 1
; infill_extruder = 1
; infill_extrusion_width = 0.45
; infill_first = 0
; infill_overlap = 15%
; infill_speed = 200
; interface_shells = 0
; ironing = 0
; ironing_flowrate = 15%
; ironing_spacing = 0.1
; ironing_speed = 15
; ironing_type = top
; layer_gcode = ;AFTER_LAYER_CHANGE\n;[layer_z]
; layer_height = 0.15
; machine_limits_usage = emit_to_gcode
; machine_max_acceleration_e = 2500,5000
; machine_max_acceleration_extruding = 4000,2000
; machine_max_acceleration_retracting = 1200,2000
; machine_max_acceleration_travel = 4000,1250
; machine_max_acceleration_x = 4000,2000
; machine_max_acceleration_y = 4000,2000
; machine_max_acceleration_z = 200,2000
; machine_max_feedrate_e = 100,120
; machine_max_feedrate_x = 300,100
; machine_max_feedrate_y = 300,100
; machine_max_feedrate_z = 40,12
; machine_max_jerk_e = 10,1.5
; machine_max_jerk_x = 8,8
; machine_max_jerk_y = 8,8
; machine_max_jerk_z = 2,0.4
; machine_min_extruding_rate = 0,0
; machine_min_travel_rate = 0,0
; max_fan_speed = 100
; max_layer_height = 0.3
; max_print_height = 220
; max_print_speed = 200
; max_volumetric_extrusion_rate_slope_negative = 0
; max_volumetric_extrusion_rate_slope_positive = 0
; max_volumetric_speed = 0
; min_bead_width = 85%
; min_fan_speed = 100
; min_feature_size = 25%
; min_layer_height = 0.07
; min_print_speed = 15
; min_skirt_length = 4
; mmu_segmented_region_interlocking_depth = 0
; mmu_segmented_region_max_width = 0
; notes = 
; nozzle_diameter = 0.4
; only_retract_when_crossing_perimeters = 0
; ooze_prevention = 0
; output_filename_format = {input_filename_base}_0.4n_{layer_height}mm_{printing_filament_types}_{printer_model}_{print_time}.gcode
; overhang_fan_speed_0 = 0
; overhang_fan_speed_1 = 0
; overhang_fan_speed_2 = 0
; overhang_fan_speed_3 = 0
; overhang_speed_0 = 15
; overhang_speed_1 = 25
; overhang_speed_2 = 30
; overhang_speed_3 = 80%
; overhangs = 1
; parking_pos_retraction = 92
; pause_print_gcode = M601
; perimeter_acceleration = 3500
; perimeter_extruder = 1
; perimeter_extrusion_width = 0.45
; perimeter_generator = classic
; perimeter_speed = 170
; perimeters = 3
; physical_printer_settings_id = 
; post_process = 
; print_settings_id = 0.15mm SPEED @MK4IS 0.4
; printer_model = MK4IS
; printer_notes = Don't remove the following keywords! These keywords are used in the "compatible printer" condition of the print and filament profiles to link the particular print and filament profiles to this printer profile.\nPRINTER_MODEL_MK4IS\nPG
; printer_settings_id = Original Prusa MK4 Input Shaper 0.4 nozzle
; printer_technology = FFF
; printer_variant = 0.4
; printer_vendor = 
; raft_contact_distance = 0.15
; raft_expansion = 1.5
; raft_first_layer_density = 80%
; raft_first_layer_expansion = 3.5
; raft_layers = 0
; remaining_times = 1
; resolution = 0
; retract_before_travel = 1.5
; retract_before_wipe = 80%
; retract_layer_change = 1
; retract_length = 0.7
; retract_length_toolchange = 4
; retract_lift = 0.2
; retract_lift_above = 0
; retract_lift_below = 219
; retract_restart_extra = 0
; retract_restart_extra_toolchange = 0
; retract_speed = 35
; seam_position = aligned
; silent_mode = 0
; single_extruder_multi_material = 0
; single_extruder_multi_material_priming = 1
; skirt_distance = 6
; skirt_height = 1
; skirts = 0
; slice_closing_radius = 0.049
; slicing_mode = regular
; slowdown_below_layer_time = 6
; small_perimeter_speed = 140
; solid_infill_acceleration = 3500
; solid_infill_below_area = 0
; solid_infill_every_layers = 0
; solid_infill_extruder = 1
; solid_infill_extrusion_width = 0.45
; solid_infill_speed = 200
; spiral_vase = 0
; staggered_inner_seams = 0
; standby_temperature_delta = -5
; start_filament_gcode = "M900 K{if nozzle_diameter[0]==0.4}0.05{elsif nozzle_diameter[0]==0.25}0.14{elsif nozzle_diameter[0]==0.3}0.07{elsif nozzle_diameter[0]==0.35}0.06{elsif nozzle_diameter[0]==0.6}0.03{elsif nozzle_diameter[0]==0.5}0.035{elsif nozzle_diameter[0]==0.8}0.015{else}0{endif} ; Filament gcode\n\n{if printer_notes=~/.*PRINTER_MODEL_MK4IS.*/}\nM572 S{if nozzle_diameter[0]==0.4}0.038{elsif nozzle_diameter[0]==0.5}0.025{elsif nozzle_diameter[0]==0.6}0.02{elsif nozzle_diameter[0]==0.8}0.014{elsif nozzle_diameter[0]==0.25}0.12{elsif nozzle_diameter[0]==0.3}0.08{else}0{endif} ; Filament gcode\n{endif}\n\nM142 S36 ; set heatbreak target temp"
