;FLAVOR:Marlin
;TIME:1146.47
;Filament used:1.54m
;Layer height:0.2
; HEADER_BLOCK_START
; generated by OrcaSlicer 2.3.2 on 2026-06-15 at 16:06:37
; total layer number: 100
; filament_density: 1.24
; filament_diameter: 1.75
; max_z_height: 20.00
; filament: 1
; HEADER_BLOCK_END

; external perimeters extrusion width = 0.42mm
; perimeters extrusion width = 0.45mm
; infill extrusion width = 0.45mm
; solid infill extrusion width = 0.42mm
; top infill extrusion width = 0.42mm
; first layer extrusion width = 0.49mm

; EXECUTABLE_BLOCK_START
;TYPE:Custom
START_PRINT EXTRUDER_TEMP=210 BED_TEMP=55
G90
G21
M82 ; use absolute distances for extrusion
G92 E0
; Filament gcode
M106 S0
;LAYER_CHANGE
;Z:0.2
;HEIGHT:0.2
;BEFORE_LAYER_CHANGE
;0.2


G1 E-1.2 F2400
G92 E0
;AFTER_LAYER_CHANGE
;0.2
;_SET_FAN_SPEED_CHANGING_LAYER
SET_VELOCITY_LIMIT ACCEL=500 ACCEL_TO_DECEL=250
; printing object Calibration Cube.stl id:0 copy 0
G1 X118.839 Y118.839 F10800
G1 Z.6
G1 Z.2
G1 E1.2 F1800
;TYPE:Inner wall
;WIDTH:0.489999
G1 F1200
G1 X101.161 Y118.839 E1.84406
G1 X101.161 Y101.161 E2.48812
G1 X118.839 Y101.161 E3.13218
G1 X118.839 Y118.799 E3.77478
G1 X119.286 Y119.286 F10800
G1 F1200
G1 X100.714 Y119.286 E4.45142
G1 X100.714 Y100.714 E5.12805
G1 X119.286 Y100.714 E5.80469
G1 X119.286 Y119.246 E6.47987
G1 X119.755 Y119.755 F10800
;TYPE:Outer wall
G1 F1200
G1 X100.245 Y119.755 E7.19064
G1 X100.245 Y100.245 E7.90141
G1 X119.755 Y100.245 E8.61219
G1 X119.755 Y119.715 E9.32151
G1 E8.48151 F2400
;WIPE_START
G1 F1200
G1 X118.755 Y119.717 E8.12151
;WIPE_END
G92 E0
G1 F10800
G1 X118.893 Y119.151 Z0.230769
G1 X119.278 Y118.714 Z0.261538
G1 X119.822 Y118.506 Z0.292308
G1 X120.4 Y118.574 Z0.323077
G1 X120.881 Y118.904 Z0.353846
G1 X121.153 Y119.419 Z0.384615
G1 X121.154 Y120.001 Z0.415385
G1 X120.885 Y120.518 Z0.446154
G1 X120.407 Y120.85 Z0.476923
G1 X119.829 Y120.922 Z0.507692
G1 X119.283 Y120.717 Z0.538462
G1 X118.896 Y120.282 Z0.569231
G1 X118.755 Y119.717 Z0.6
G1 X118.705 Y102.202 Z.6
G1 Z.2
G1 E1.2 F1800
;TYPE:Bottom surface
;WIDTH:0.491745
G1 F2400
G1 X117.999 Y101.496 E1.23653
G1 X117.364 Y101.496 E1.25975
G1 X118.504 Y102.636 E1.3187
G1 X118.504 Y103.27 E1.34191
G1 X116.73 Y101.496 E1.4337
G1 X116.095 Y101.496 E1.45691
G1 X118.504 Y103.905 E1.58153
G1 X118.504 Y104.54 E1.60474
G1 X115.46 Y101.496 E1.76219
G1 X114.825 Y101.496 E1.78541
G1 X118.504 Y105.175 E1.97568
G1 X118.504 Y105.809 E1.9989
G1 X114.191 Y101.496 E2.222
G1 X113.556 Y101.496 E2.24522
G1 X118.504 Y106.444 E2.50115
G1 X118.504 Y107.079 E2.52437
G1 X112.921 Y101.496 E2.81313
G1 X112.286 Y101.496 E2.83635
G1 X118.504 Y107.714 E3.15795
G1 X118.504 Y108.348 E3.18116
G1 X111.652 Y101.496 E3.53559
G1 X111.017 Y101.496 E3.5588
G1 X118.504 Y108.983 E3.94606
G1 X118.504 Y109.618 E3.96927
G1 X110.382 Y101.496 E4.38936
G1 X109.747 Y101.496 E4.41258
G1 X118.504 Y110.253 E4.86549
G1 X118.504 Y110.887 E4.88871
G1 X109.113 Y101.496 E5.37446
G1 X108.478 Y101.496 E5.39767
G1 X118.504 Y111.522 E5.91625
G1 X118.504 Y112.157 E5.93947
G1 X107.843 Y101.496 E6.49087
G1 X107.208 Y101.496 E6.51409
G1 X118.504 Y112.792 E7.09833
G1 X118.504 Y113.426 E7.12154
G1 X106.574 Y101.496 E7.73861
G1 X105.939 Y101.496 E7.76183
G1 X118.504 Y114.061 E8.41173
G1 X118.504 Y114.696 E8.43494
G1 X105.304 Y101.496 E9.11767
G1 X104.67 Y101.496 E9.14088
G1 X118.504 Y115.33 E9.85644
G1 X118.504 Y115.965 E9.87966
G1 X104.035 Y101.496 E10.62805
G1 X103.4 Y101.496 E10.65126
G1 X118.504 Y116.6 E11.43248
G1 X118.504 Y117.235 E11.4557
G1 X102.765 Y101.496 E12.26975
G1 X102.131 Y101.496 E12.29296
G1 X118.504 Y117.869 E13.13984
G1 X118.504 Y118.504 E13.16306
G1 X101.496 Y101.496 E14.04276
G1 X101.496 Y102.131 E14.06598
G1 X117.869 Y118.504 E14.91286
G1 X117.235 Y118.504 E14.93607
G1 X101.496 Y102.765 E15.75012
G1 X101.496 Y103.4 E15.77333
G1 X116.6 Y118.504 E16.55455
G1 X115.965 Y118.504 E16.57776
G1 X101.496 Y104.035 E17.32615
G1 X101.496 Y104.67 E17.34936
G1 X115.33 Y118.504 E18.06492
G1 X114.696 Y118.504 E18.08813
G1 X101.496 Y105.304 E18.77086
G1 X101.496 Y105.939 E18.79407
G1 X114.061 Y118.504 E19.44397
G1 X113.426 Y118.504 E19.46718
G1 X101.496 Y106.574 E20.08425
G1 X101.496 Y107.209 E20.10746
G1 X112.791 Y118.504 E20.6917
G1 X112.157 Y118.504 E20.71491
G1 X101.496 Y107.843 E21.26632
G1 X101.496 Y108.478 E21.28953
G1 X111.522 Y118.504 E21.8081
G1 X110.887 Y118.504 E21.83132
G1 X101.496 Y109.113 E22.31706
G1 X101.496 Y109.748 E22.34028
G1 X110.252 Y118.504 E22.79319
G1 X109.618 Y118.504 E22.81641
G1 X101.496 Y110.382 E23.23649
G1 X101.496 Y111.017 E23.2597
G1 X108.983 Y118.504 E23.64696
G1 X108.348 Y118.504 E23.67017
G1 X101.496 Y111.652 E24.02459
G1 X101.496 Y112.286 E24.04781
G1 X107.714 Y118.504 E24.3694
G1 X107.079 Y118.504 E24.39262
G1 X101.496 Y112.921 E24.68138
G1 X101.496 Y113.556 E24.70459
G1 X106.444 Y118.504 E24.96052
G1 X105.809 Y118.504 E24.98374
G1 X101.496 Y114.191 E25.20684
G1 X101.496 Y114.825 E25.23006
G1 X105.175 Y118.504 E25.42033
G1 X104.54 Y118.504 E25.44354
G1 X101.496 Y115.46 E25.60098
G1 X101.496 Y116.095 E25.6242
G1 X103.905 Y118.504 E25.74881
G1 X103.27 Y118.504 E25.77202
G1 X101.496 Y116.73 E25.8638
G1 X101.496 Y117.364 E25.88702
G1 X102.636 Y118.504 E25.94597
G1 X102.001 Y118.504 E25.96918
G1 X101.295 Y117.798 E26.00571
; stop printing object Calibration Cube.stl id:0 copy 0
M106 S255
;LAYER_CHANGE
;Z:0.4
;HEIGHT:0.2
;BEFORE_LAYER_CHANGE
;0.4


G1 E25.16571 F2400
;WIPE_START
G1 X102.001 Y118.504 E24.80617
G1 X102.002 Y118.504 E24.80571
;WIPE_END
G92 E0
;AFTER_LAYER_CHANGE
;0.4
;_SET_FAN_SPEED_CHANGING_LAYER
SET_VELOCITY_LIMIT ACCEL=2000 ACCEL_TO_DECEL=1000
M140 S60 ; set bed temperature
; printing object Calibration Cube.stl id:0 copy 0
SET_VELOCITY_LIMIT ACCEL=2500 ACCEL_TO_DECEL=1250
G1 F10800
G1 X102.564 Y118.659 Z0.430769
G1 X102.989 Y119.057 Z0.461538
G1 X103.181 Y119.607 Z0.492308
G1 X103.094 Y120.183 Z0.523077
G1 X102.751 Y120.653 Z0.553846
G1 X102.228 Y120.91 Z0.584615
G1 X101.645 Y120.894 Z0.615385
G1 X101.137 Y120.609 Z0.646154
G1 X100.82 Y120.121 Z0.676923
G1 X100.765 Y119.541 Z0.707692
G1 X100.987 Y119.002 Z0.738462
G1 X101.433 Y118.628 Z0.769231
G1 X102.002 Y118.504 Z0.8
G1 X118.969 Y118.969 Z.8
G1 Z.4
G1 E1.2 F1800
SET_VELOCITY_LIMIT ACCEL=1200 ACCEL_TO_DECEL=600
;TYPE:Inner wall
;WIDTH:0.449999
G1 F7200
G1 X101.031 Y118.969 E1.79506
G1 X101.031 Y101.031 E2.39012
G1 X118.969 Y101.031 E2.98518
G1 X118.969 Y118.929 E3.57892
SET_VELOCITY_LIMIT ACCEL=2500 ACCEL_TO_DECEL=1250
G1 X119.376 Y119.376 F10800
SET_VELOCITY_LIMIT ACCEL=1200 ACCEL_TO_DECEL=600
G1 F7200
G1 X100.624 Y119.376 E4.20098
G1 X100.624 Y100.624 E4.82305
G1 X119.376 Y100.624 E5.44512
G1 X119.376 Y119.336 E6.06586
SET_VELOCITY_LIMIT ACCEL=700 ACCEL_TO_DECEL=350
G1 X119.79 Y119.79 F10800
;TYPE:Outer wall
;WIDTH:0.419999
G1 F4800
G1 X100.21 Y119.79 E6.6675
G1 X100.21 Y100.21 E7.26914
G1 X119.79 Y100.21 E7.87078
G1 X119.79 Y119.75 E8.47118
SET_VELOCITY_LIMIT ACCEL=2500 ACCEL_TO_DECEL=1250
G1 E7.63118 F2400
;WIPE_START
G1 F4800
G1 X118.79 Y119.752 E7.27118
;WIPE_END
G92 E0
G1 F10800
G1 X118.442 Y119.285 Z0.430769
G1 X118.352 Y118.709 Z0.461538
G1 X118.539 Y118.158 Z0.492308
G1 X118.961 Y117.756 Z0.523077
G1 X119.521 Y117.597 Z0.553846
G1 X120.091 Y117.716 Z0.584615
G1 X120.54 Y118.086 Z0.615385
G1 X120.766 Y118.623 Z0.646154
G1 X120.717 Y119.204 Z0.676923
G1 X120.403 Y119.695 Z0.707692
G1 X119.897 Y119.983 Z0.738462
G1 X119.315 Y120.004 Z0.769231
G1 X118.79 Y119.752 Z0.8
G1 X117.365 Y118.577 Z.8
G1 Z.4
G1 E1.2 F1800
SET_VELOCITY_LIMIT ACCEL=2000 ACCEL_TO_DECEL=1000
;TYPE:Internal solid infill
G1 F5700
G1 X118.577 Y118.577 E1.23725
G1 X118.577 Y117.365 E1.27451
G1 X117.393 Y118.549 E1.32596
SET_VELOCITY_LIMIT ACCEL=2500 ACCEL_TO_DECEL=1250
G1 X118.808 Y116.653 F10800
SET_VELOCITY_LIMIT ACCEL=2000 ACCEL_TO_DECEL=1000
;WIDTH:0.421235
G1 F5700
G1 X116.823 Y118.638 E1.41251
G1 X116.288 Y118.638 E1.429
G1 X118.638 Y116.288 E1.53147
G1 X118.638 Y115.753 E1.54796
G1 X115.753 Y118.638 E1.67376
G1 X115.218 Y118.638 E1.69025
G1 X118.638 Y115.218 E1.83938
G1 X118.638 Y114.683 E1.85587
G1 X114.683 Y118.638 E2.02832
G1 X114.148 Y118.638 E2.04481
G1 X118.638 Y114.148 E2.24058
G1 X118.638 Y113.613 E2.25708
G1 X113.613 Y118.638 E2.47617
G1 X113.078 Y118.638 E2.49267
G1 X118.638 Y113.078 E2.73509
G1 X118.638 Y112.543 E2.75158
G1 X112.543 Y118.638 E3.01733
G1 X112.008 Y118.638 E3.03383
G1 X118.638 Y112.008 E3.3229
G1 X118.638 Y111.473 E3.33939
G1 X111.473 Y118.638 E3.65179
G1 X110.938 Y118.638 E3.66829
G1 X118.638 Y110.938 E4.00401
G1 X118.638 Y110.403 E4.0205
G1 X110.403 Y118.638 E4.37955
G1 X109.868 Y118.638 E4.39605
G1 X118.638 Y109.868 E4.77842
G1 X118.638 Y109.333 E4.79491
G1 X109.333 Y118.638 E5.20061
G1 X108.798 Y118.638 E5.21711
G1 X118.638 Y108.798 E5.64613
G1 X118.638 Y108.263 E5.66263
G1 X108.263 Y118.638 E6.11498
G1 X107.728 Y118.638 E6.13147
G1 X118.638 Y107.728 E6.60715
G1 X118.638 Y107.193 E6.62364
G1 X107.193 Y118.638 E7.12264
G1 X106.658 Y118.638 E7.13914
G1 X118.638 Y106.658 E7.66146
G1 X118.638 Y106.123 E7.67796
G1 X106.123 Y118.638 E8.22361
G1 X105.588 Y118.638 E8.2401
G1 X118.638 Y105.588 E8.80908
G1 X118.638 Y105.053 E8.82557
G1 X105.053 Y118.638 E9.41787
G1 X104.518 Y118.638 E9.43437
G1 X118.638 Y104.518 E10.05
G1 X118.638 Y103.983 E10.06649
G1 X103.983 Y118.638 E10.70544
G1 X103.448 Y118.638 E10.72194
G1 X118.638 Y103.448 E11.38421
G1 X118.638 Y102.913 E11.40071
G1 X102.913 Y118.638 E12.08631
G1 X102.377 Y118.638 E12.10281
G1 X118.638 Y102.377 E12.81173
G1 X118.638 Y101.842 E12.82823
G1 X101.842 Y118.638 E13.56048
G1 X101.362 Y118.638 E13.57531
G1 X101.362 Y118.584 E13.57698
G1 X118.584 Y101.362 E14.32783
G1 X118.049 Y101.362 E14.34432
G1 X101.362 Y118.049 E15.07185
G1 X101.362 Y117.514 E15.08835
G1 X117.514 Y101.362 E15.79255
G1 X116.979 Y101.362 E15.80905
G1 X101.362 Y116.979 E16.48992
G1 X101.362 Y116.444 E16.50642
G1 X116.444 Y101.362 E17.16397
G1 X115.909 Y101.362 E17.18046
G1 X101.362 Y115.909 E17.81469
G1 X101.362 Y115.374 E17.83119
G1 X115.374 Y101.362 E18.44209
G1 X114.839 Y101.362 E18.45858
G1 X101.362 Y114.839 E19.04616
G1 X101.362 Y114.304 E19.06265
G1 X114.304 Y101.362 E19.62691
G1 X113.769 Y101.362 E19.6434
G1 X101.362 Y113.769 E20.18433
G1 X101.362 Y113.234 E20.20082
G1 X113.234 Y101.362 E20.71842
G1 X112.699 Y101.362 E20.73492
G1 X101.362 Y112.699 E21.22919
G1 X101.362 Y112.164 E21.24569
G1 X112.164 Y101.362 E21.71664
G1 X111.629 Y101.362 E21.73313
G1 X101.362 Y111.629 E22.18076
G1 X101.362 Y111.094 E22.19725
G1 X111.094 Y101.362 E22.62155
G1 X110.559 Y101.362 E22.63805
G1 X101.362 Y110.559 E23.03902
G1 X101.362 Y110.024 E23.05551
G1 X110.024 Y101.362 E23.43316
G1 X109.489 Y101.362 E23.44966
G1 X101.362 Y109.489 E23.80398
G1 X101.362 Y108.954 E23.82048
G1 X108.954 Y101.362 E24.15148
G1 X108.419 Y101.362 E24.16797
G1 X101.362 Y108.419 E24.47564
G1 X101.362 Y107.884 E24.49214
G1 X107.884 Y101.362 E24.77649
G1 X107.349 Y101.362 E24.79298
G1 X101.362 Y107.349 E25.054
G1 X101.362 Y106.814 E25.0705
G1 X106.814 Y101.362 E25.30819
G1 X106.279 Y101.362 E25.32469
G1 X101.362 Y106.279 E25.53906
G1 X101.362 Y105.744 E25.55555
G1 X105.744 Y101.362 E25.7466
G1 X105.209 Y101.362 E25.7631
G1 X101.362 Y105.209 E25.93082
G1 X101.362 Y104.674 E25.94731
G1 X104.674 Y101.362 E26.09171
G1 X104.139 Y101.362 E26.1082
G1 X101.362 Y104.139 E26.22927
G1 X101.362 Y103.604 E26.24577
G1 X103.604 Y101.362 E26.34351
G1 X103.069 Y101.362 E26.36001
G1 X101.362 Y103.069 E26.43443
G1 X101.362 Y102.534 E26.45092
G1 X102.534 Y101.362 E26.50202
G1 X101.999 Y101.362 E26.51851
G1 X101.192 Y102.168 E26.55368
; stop printing object Calibration Cube.stl id:0 copy 0
;LAYER_CHANGE
;Z:0.6
;HEIGHT:0.2
;BEFORE_LAYER_CHANGE
;0.6


G1 E25.71368 F2400
;WIPE_START
G1 F5700
G1 X101.899 Y101.461 E25.35368
;WIPE_END
G92 E0
;AFTER_LAYER_CHANGE
;0.6
;_SET_FAN_SPEED_CHANGING_LAYER
; printing object Calibration Cube.stl id:0 copy 0
SET_VELOCITY_LIMIT ACCEL=2500 ACCEL_TO_DECEL=1250
G1 F10800
G1 X102.194 Y101.963 Z0.630769
G1 X102.222 Y102.545 Z0.661538
G1 X101.976 Y103.073 Z0.692308
G1 X101.513 Y103.427 Z0.723077
G1 X100.939 Y103.524 Z0.753846
G1 X100.385 Y103.344 Z0.784615
G1 X99.9784 Y102.927 Z0.815385
G1 X99.8121 Y102.369 Z0.846154
G1 X99.9244 Y101.797 Z0.876923
G1 X100.289 Y101.343 Z0.907692
G1 X100.824 Y101.111 Z0.938462
G1 X101.404 Y101.154 Z0.969231
G1 X101.899 Y101.461 Z1
G1 X118.969 Y118.969 Z1
G1 Z.6
G1 E1.2 F1800
SET_VELOCITY_LIMIT ACCEL=1200 ACCEL_TO_DECEL=600
;TYPE:Inner wall
;WIDTH:0.449999
G1 F7200
G1 X101.031 Y118.969 E1.79506
G1 X101.031 Y101.031 E2.39012
G1 X118.969 Y101.031 E2.98518
G1 X118.969 Y118.929 E3.57892
SET_VELOCITY_LIMIT ACCEL=2500 ACCEL_TO_DECEL=1250
G1 X119.376 Y119.376 F10800
SET_VELOCITY_LIMIT ACCEL=1200 ACCEL_TO_DECEL=600
G1 F7200
G1 X100.624 Y119.376 E4.20098
G1 X100.624 Y100.624 E4.82305
G1 X119.376 Y100.624 E5.44512
G1 X119.376 Y119.336 E6.06586
SET_VELOCITY_LIMIT ACCEL=700 ACCEL_TO_DECEL=350
G1 X119.79 Y119.79 F10800
;TYPE:Outer wall
;WIDTH:0.419999
G1 F4800
G1 X100.21 Y119.79 E6.6675
G1 X100.21 Y100.21 E7.26914
G1 X119.79 Y100.21 E7.87078
G1 X119.79 Y119.75 E8.47118
SET_VELOCITY_LIMIT ACCEL=2500 ACCEL_TO_DECEL=1250
G1 E7.63118 F2400
;WIPE_START
G1 F4800
G1 X118.79 Y119.752 E7.27118
;WIPE_END
G92 E0
G1 F10800
G1 X118.93 Y119.187 Z0.630769
G1 X119.317 Y118.751 Z0.661538
G1 X119.862 Y118.545 Z0.692308
G1 X120.44 Y118.616 Z0.723077
G1 X120.919 Y118.947 Z0.753846
G1 X121.189 Y119.463 Z0.784615
G1 X121.188 Y120.046 Z0.815385
G1 X120.917 Y120.561 Z0.846154
G1 X120.437 Y120.892 Z0.876923
G1 X119.859 Y120.961 Z0.907692
G1 X119.315 Y120.754 Z0.938462
G1 X118.929 Y120.318 Z0.969231
G1 X118.79 Y119.752 Z1
G1 X118.808 Y103.347 Z1
G1 Z.6
G1 E1.2 F1800
SET_VELOCITY_LIMIT ACCEL=2000 ACCEL_TO_DECEL=1000
;TYPE:Internal solid infill
;WIDTH:0.421235
G1 F5700
G1 X116.823 Y101.362 E1.28654
G1 X116.288 Y101.362 E1.30304
G1 X118.638 Y103.712 E1.40551
G1 X118.638 Y104.247 E1.422
G1 X115.753 Y101.362 E1.5478
G1 X115.218 Y101.362 E1.56429
G1 X118.638 Y104.782 E1.71341
G1 X118.638 Y105.317 E1.72991
G1 X114.683 Y101.362 E1.90235
G1 X114.148 Y101.362 E1.91885
G1 X118.638 Y105.852 E2.11462
G1 X118.638 Y106.387 E2.13111
G1 X113.613 Y101.362 E2.35021
G1 X113.078 Y101.362 E2.36671
G1 X118.638 Y106.922 E2.60913
G1 X118.638 Y107.457 E2.62562
G1 X112.543 Y101.362 E2.89137
G1 X112.008 Y101.362 E2.90786
G1 X118.638 Y107.992 E3.19694
G1 X118.638 Y108.527 E3.21343
G1 X111.473 Y101.362 E3.52583
G1 X110.938 Y101.362 E3.54232
G1 X118.638 Y109.062 E3.87805
G1 X118.638 Y109.597 E3.89454
G1 X110.403 Y101.362 E4.25359
G1 X109.868 Y101.362 E4.27008
G1 X118.638 Y110.132 E4.65246
G1 X118.638 Y110.667 E4.66895
G1 X109.333 Y101.362 E5.07465
G1 X108.798 Y101.362 E5.09115
G1 X118.638 Y111.202 E5.52017
G1 X118.638 Y111.737 E5.53667
G1 X108.263 Y101.362 E5.98902
G1 X107.728 Y101.362 E6.00551
G1 X118.638 Y112.272 E6.48119
G1 X118.638 Y112.807 E6.49768
G1 X107.193 Y101.362 E6.99668
G1 X106.658 Y101.362 E7.01317
G1 X118.638 Y113.342 E7.5355
G1 X118.638 Y113.877 E7.55199
G1 X106.123 Y101.362 E8.09765
G1 X105.588 Y101.362 E8.11414
G1 X118.638 Y114.412 E8.68312
G1 X118.638 Y114.947 E8.69961
G1 X105.053 Y101.362 E9.29191
G1 X104.518 Y101.362 E9.30841
G1 X118.638 Y115.482 E9.92403
G1 X118.638 Y116.017 E9.94053
G1 X103.983 Y101.362 E10.57948
G1 X103.448 Y101.362 E10.59597
G1 X118.638 Y116.552 E11.25825
G1 X118.638 Y117.088 E11.27475
G1 X102.913 Y101.362 E11.96035
G1 X102.377 Y101.362 E11.97684
G1 X118.638 Y117.623 E12.68577
G1 X118.638 Y118.158 E12.70227
G1 X101.842 Y101.362 E13.43452
G1 X101.362 Y101.362 E13.44934
G1 X101.362 Y101.416 E13.45101
G1 X118.584 Y118.638 E14.20187
G1 X118.049 Y118.638 E14.21836
G1 X101.362 Y101.951 E14.94589
G1 X101.362 Y102.486 E14.96238
G1 X117.514 Y118.638 E15.66659
G1 X116.979 Y118.638 E15.68308
G1 X101.362 Y103.021 E16.36396
G1 X101.362 Y103.556 E16.38046
G1 X116.444 Y118.638 E17.03801
G1 X115.909 Y118.638 E17.0545
G1 X101.362 Y104.091 E17.68873
G1 X101.362 Y104.626 E17.70522
G1 X115.374 Y118.638 E18.31613
G1 X114.839 Y118.638 E18.33262
G1 X101.362 Y105.161 E18.9202
G1 X101.362 Y105.696 E18.93669
G1 X114.304 Y118.638 E19.50094
