; generated by PrusaSlicer 2.6.1+win64 on 2023-09-07 at 12:57:56 UTC


;
;

;
;

;
;

;
;
; 

; external perimeters extrusion width = 0.45mm
; perimeters extrusion width = 0.45mm
; infill extrusion width = 0.45mm
; solid infill extrusion width = 0.45mm
; top infill extrusion width = 0.42mm
; first layer extrusion width = 0.50mm

M73 P0 R26
M201 X4000 Y4000 Z200 E2500 ; sets maximum accelerations, mm/sec^2
M203 X300 Y300 Z40 E100 ; sets maximum feedrates, mm / sec
M204 P4000 R1200 T4000 ; sets acceleration (P, T) and retract acceleration (R), mm/sec^2
M205 X8.00 Y8.00 Z2.00 E10.00 ; sets the jerk limits, mm/sec
M205 S0 T0 ; sets the minimum extruding and travel feed rate, mm/sec
;TYPE:Custom
M17 ; enable steppers
M862.1 P0.4 ; nozzle diameter check
M862.3 P "MK4" ; printer model check
M862.5 P2 ; g-code level check
M862.6 P"Input shaper" ; FW feature check
M115 U5.0.0+12061

M555 X61.4273 Y74.5498 W124.315 H57.9982

G90 ; use absolute coordinates
M83 ; extruder relative mode

M140 S60 ; set bed temp

M104 S170 ; set extruder temp for bed leveling
M109 R170 ; wait for temp


M84 E ; turn off E motor

G28 ; home all without mesh bed level

G1 X42 Y-4 Z5 F4800

M302 S160 ; lower cold extrusion limit to 160C


G1 E-2 F2400 ; retraction


M84 E ; turn off E motor

G29 P9 X10 Y-4 W32 H4

M106 S100

G0 Z40 F10000

M190 S60 ; wait for bed temp

M107

;
; MBL
;
M84 E ; turn off E motor
G29 P1 ; invalidate mbl & probe print area
G29 P1 X0 Y0 W50 H20 C ; probe near purge place
G29 P3.2 ; interpolate mbl probes
G29 P3.13 ; extrapolate mbl outside probe area
G29 A ; activate mbl

; prepare for purge
M104 S230
G0 X0 Y-4 Z15 F4800 ; move away and ready for the purge
M109 S230

G92 E0
M569 S0 E ; set spreadcycle mode for extruder

;
; Extrude purge line
;
G92 E0 ; reset extruder position
G1 E2 F2400 ; deretraction after the initial one before nozzle cleaning
G0 E7 X15 Z0.2 F500 ; purge
G0 X25 E4 F500 ; purge
G0 X35 E4 F650 ; purge
G0 X45 E4 F800 ; purge
G0 X48 Z0.05 F8000 ; wipe, move close to the bed
G0 X51 Z0.2 F8000 ; wipe, move quickly away from the bed

G92 E0
M221 S100 ; set flow to 100%
G21 ; set units to millimeters
G90 ; use absolute coordinates
M83 ; use relative distances for extrusion
M900 K0.05 ; Filament gcode


M572 S0.038 ; Filament gcode


M142 S36 ; set heatbreak target temp
M107
;LAYER_CHANGE
;Z:0.2
;HEIGHT:0.2
;BEFORE_LAYER_CHANGE
G92 E0.0
;0.2
M201 X4000 Y4000
M74 W0

G1 E-.7 F2100
G1 Z.2 F720
;AFTER_LAYER_CHANGE
;0.2
; printing object spachtle-printables V7_90%.stl id:0 copy 0
G1 Z.4
M204 T4000
G1 X127.668 Y105.695 F18000
G1 Z.2 F720
G1 E.7 F2100
M204 P500
;TYPE:External perimeter
;WIDTH:0.5
G1 F2400
G1 X128.363 Y105.792 E.02667
G1 X128.399 Y105.845 E.00244
G1 X128.461 Y105.902 E.0032
G1 X128.179 Y106.011 E.01149
G1 X128.195 Y106.064 E.0021
G1 X128.048 Y106.052 E.00561
G1 X127.891 Y106 E.00629
G1 X127.789 Y105.926 E.00479
G1 X127.694 Y105.749 E.00763
M204 P3000
G1 X128.036 Y105.852 F18000
G1 E-.7 F2100
G1 Z.4 F720
G1 X127.883 Y104.031 F18000
G1 Z.2 F720
G1 E.7 F2100
M204 P500
G1 F2400
G1 X127.884 Y103.999 E.00122
G1 X127.937 Y103.936 E.00313
G1 X128.149 Y103.843 E.0088
G1 X128.252 Y103.769 E.00482
G1 X128.458 Y103.798 E.00791
G1 X128.58 Y103.855 E.00512
G1 X128.661 Y103.935 E.00433
G1 X128.686 Y103.98 E.00196
G1 X128.758 Y104.282 E.0118
G1 X128.109 Y104.189 E.02492
G1 X128.021 Y104.109 E.00452
G1 X127.932 Y104.065 E.00377
M204 P3000
G1 X127.905 Y104.007 F18000
G1 E-.7 F2100
G1 Z.4 F720
G1 X146.728 Y105.768 F18000
G1 Z.2 F720
G1 E.7 F2100
M204 P500
G1 F2400
G1 X146.98 Y105.739 E.00964
G1 X147.514 Y105.732 E.0203
G1 X147.42 Y105.876 E.00654
G1 X147.311 Y105.954 E.00509
G1 X147.158 Y106.006 E.00614
G1 X146.961 Y106.018 E.0075
G1 X146.977 Y105.994 E.0011
G1 X146.751 Y105.824 E.01075
M204 P3000
G1 X146.977 Y105.818 F18000
G1 E-.7 F2100
G1 Z.4 F720
G1 X120.073 Y104.936 F18000
G1 Z.2 F720
G1 E.7 F2100
M204 P500
;TYPE:Perimeter
G1 F2400
G1 X120.286 Y104.739 E.01103
G1 X120.35 Y104.711 E.00266
G1 X120.426 Y104.695 E.00295
G1 X120.49 Y104.701 E.00244
G1 X120.537 Y104.722 E.00196
G1 X120.574 Y104.775 E.00246
G1 X120.601 Y104.937 E.00624
G1 X120.594 Y105.027 E.00343
G1 X120.574 Y105.099 E.00284
G1 X120.519 Y105.165 E.00327
G1 X120.411 Y105.176 E.00413
G1 X120.28 Y105.131 E.00526
G1 X120.116 Y104.978 E.00852
M204 P3000
G1 E-.7 F2100
G1 Z.4 F720
G1 X150.186 Y104.648 F18000
G1 Z.2 F720
G1 E.7 F2100
M204 P500
G1 F2400
G1 X150.185 Y105.185 E.02041
G1 X149.801 Y105.314 E.0154
G1 X149.809 Y105.15 E.00624
G1 X149.659 Y105.15 E.0057
G1 X149.692 Y105.108 E.00203
G1 X149.821 Y104.851 E.01093
G1 X149.901 Y104.576 E.01089
G1 X150.127 Y104.633 E.00886
M204 P3000
G1 E-.7 F2100
G1 Z.4 F720
G1 X152.622 Y101.594 F18000
G1 Z.2 F720
G1 E.7 F2100
M204 P500
G1 F2400
G1 X152.621 Y101.227 E.01395
G1 X155.751 Y101.227 E.11896
G1 X155.751 Y101.216 E.00042
G1 X157.625 Y101.234 E.07123
G1 X158.171 Y101.276 E.02081
G1 X159.047 Y101.415 E.03371
G1 X159.923 Y101.276 E.03371
G1 X160.469 Y101.234 E.02081
G1 X162.344 Y101.216 E.07127
G1 X162.344 Y101.227 E.00042
G1 X166.075 Y101.227 E.1418
G1 X166.063 Y103.539 E.08787
G1 X166.327 Y103.416 E.01107
G1 X166.657 Y103.301 E.01328
G1 X166.997 Y103.221 E.01328
G1 X167.343 Y103.173 E.01328
G1 X167.849 Y103.159 E.01924
G1 X167.849 Y101.227 E.07343
G1 X172.049 Y101.227 E.15963
G1 X172.049 Y110.395 E.34844
G1 X167.665 Y110.395 E.16662
G1 X167.343 Y110.381 E.01225
G1 X166.997 Y110.333 E.01328
G1 X166.658 Y110.253 E.01324
G1 X166.329 Y110.14 E.01322
G1 X166.013 Y109.993 E.01325
G1 X165.711 Y109.811 E.0134
G1 X165.428 Y109.594 E.01355
G1 X165.161 Y109.334 E.01416
G1 X164.921 Y109.025 E.01487
G1 X164.72 Y108.669 E.01554
G1 X164.664 Y108.514 E.00626
G1 X164.481 Y108.57 E.00727
G1 X163.733 Y108.57 E.02843
G1 X163.37 Y108.459 E.01443
G1 X162.964 Y108.541 E.01574
G1 X162.679 Y108.637 E.01143
G1 X162.312 Y108.599 E.01402
G1 X162.374 Y110.52 E.07305
G1 X158.215 Y110.525 E.15807
G1 X158.247 Y108.671 E.07047
G1 X158.259 Y108.583 E.00338
G1 X158.157 Y108.599 E.00392
G1 X157.49 Y108.565 E.02538
G1 X157.237 Y108.487 E.01006
G1 X156.897 Y108.546 E.01312
G1 X156.794 Y108.608 E.00457
G1 X156.383 Y108.7 E.01601
G1 X155.896 Y108.74 E.01857
G1 X155.549 Y108.726 E.0132
G1 X155.224 Y108.682 E.01246
G1 X154.904 Y108.605 E.01251
G1 X154.643 Y108.513 E.01052
G1 X153.833 Y108.565 E.03085
G1 X153.835 Y110.119 E.05906
G1 X149.725 Y110.119 E.15621
G1 X149.725 Y108.62 E.05697
G1 X148.589 Y108.593 E.04319
G1 X148.603 Y108.425 E.00641
G1 X148.261 Y108.556 E.01392
G1 X147.957 Y108.638 E.01197
G1 X147.645 Y108.695 E.01205
G1 X147.324 Y108.729 E.01227
G1 X146.995 Y108.74 E.01251
G1 X146.648 Y108.728 E.0132
G1 X146.31 Y108.692 E.01292
G1 X145.98 Y108.631 E.01275
G1 X145.659 Y108.542 E.01266
G1 X145.348 Y108.425 E.01263
G1 X145.138 Y108.32 E.00892
G1 X145.141 Y110.4 E.07905
G1 X140.973 Y110.384 E.15841
G1 X141.063 Y108.722 E.06326
G1 X140.825 Y108.725 E.00905
G1 X140.428 Y108.667 E.01525
G1 X140.071 Y108.575 E.01401
G1 X139.732 Y108.447 E.01377
G1 X139.341 Y108.244 E.01674
G1 X139.345 Y110.395 E.08175
G1 X135.233 Y110.395 E.15628
G1 X135.236 Y108.21 E.08304
G1 X135.068 Y108.309 E.00741
G1 X134.727 Y108.464 E.01424
G1 X134.372 Y108.585 E.01425
G1 X134.005 Y108.672 E.01433
G1 X133.627 Y108.723 E.0145
G1 X133.24 Y108.741 E.01472
G1 X132.86 Y108.723 E.01446
G1 X132.487 Y108.671 E.01431
G1 X132.125 Y108.584 E.01415
G1 X131.772 Y108.462 E.01419
G1 X131.432 Y108.302 E.01428
G1 X131.093 Y108.097 E.01506
G1 X130.751 Y107.804 E.01712
G1 X130.658 Y107.907 E.00527
G1 X130.393 Y108.13 E.01316
G1 X130.104 Y108.311 E.01296
G1 X129.81 Y108.451 E.01238
G1 X129.51 Y108.559 E.01212
G1 X129.202 Y108.64 E.0121
G1 X128.886 Y108.696 E.0122
G1 X128.561 Y108.729 E.01242
G1 X128.233 Y108.74 E.01247
G1 X127.967 Y108.734 E.01011
G1 X127.528 Y108.691 E.01676
G1 X127.273 Y108.645 E.00985
G1 X126.883 Y108.539 E.01536
G1 X126.65 Y108.453 E.00944
G1 X126.28 Y108.275 E.01561
G1 X125.835 Y107.967 E.02057
G1 X125.55 Y107.693 E.01503
G1 X125.325 Y107.404 E.01392
G1 X124.967 Y106.781 E.02731
G1 X124.955 Y106.462 E.01213
G1 X124.705 Y105.5 E.03778
G1 X124.856 Y105.394 E.00701
G1 X124.559 Y105.434 E.01139
G1 X124.194 Y105.407 E.01391
G1 X124.182 Y105.622 E.00818
G1 X124.107 Y106.033 E.01588
G1 X123.982 Y106.413 E.0152
G1 X123.827 Y106.759 E.01441
G1 X123.639 Y107.083 E.01424
G1 X123.42 Y107.382 E.01409
G1 X123.173 Y107.657 E.01405
G1 X122.898 Y107.904 E.01405
G1 X122.599 Y108.123 E.01409
G1 X122.278 Y108.31 E.01412
G1 X121.939 Y108.464 E.01415
G1 X121.584 Y108.585 E.01425
G1 X121.217 Y108.672 E.01433
G1 X120.839 Y108.723 E.0145
G1 X120.463 Y108.74 E.0143
G1 X120.183 Y108.732 E.01065
G1 X119.901 Y108.707 E.01076
G1 X119.437 Y108.62 E.01794
G1 X119.162 Y108.539 E.0109
G1 X118.755 Y108.374 E.01669
G1 X118.512 Y108.245 E.01046
G1 X118.146 Y107.996 E.01682
G1 X117.81 Y107.683 E.01745
G1 X117.775 Y107.638 E.00217
G1 X117.549 Y107.87 E.01231
G1 X117.228 Y108.113 E.0153
G1 X116.901 Y108.307 E.01445
G1 X116.558 Y108.464 E.01434
G1 X116.202 Y108.585 E.01429
G1 X115.835 Y108.672 E.01433
G1 X115.457 Y108.723 E.0145
G1 X115.071 Y108.741 E.01469
G1 X114.685 Y108.723 E.01469
G1 X114.307 Y108.672 E.0145
G1 X113.939 Y108.585 E.01437
G1 X113.584 Y108.464 E.01425
G1 X113.242 Y108.308 E.01429
G1 X113.153 Y108.255 E.00394
G1 X113.171 Y108.644 E.0148
G1 X111.278 Y108.635 E.07195
G1 X110.695 Y108.555 E.02237
G1 X110.428 Y108.466 E.0107
G1 X110.319 Y108.489 E.00423
G1 X109.896 Y108.685 E.01772
G1 X109.369 Y108.733 E.02011
G1 X109.055 Y108.73 E.01193
G1 X108.762 Y108.691 E.01123
G1 X108.48 Y108.628 E.01098
G1 X108.062 Y108.476 E.0169
G1 X107.992 Y108.44 E.00299
G1 X107.909 Y108.482 E.00354
G1 X107.467 Y108.639 E.01783
G1 X106.963 Y108.727 E.01944
G1 X106.649 Y108.741 E.01195
G1 X106.333 Y108.725 E.01203
G1 X106.017 Y108.679 E.01214
G1 X105.71 Y108.601 E.01204
G1 X105.413 Y108.493 E.01201
G1 X105.13 Y108.355 E.01197
G1 X104.862 Y108.19 E.01196
G1 X104.614 Y107.997 E.01194
G1 X104.386 Y107.781 E.01194
G1 X104.181 Y107.542 E.01197
G1 X104.001 Y107.283 E.01199
G1 X103.847 Y107.006 E.01205
G1 X103.72 Y106.715 E.01207
G1 X103.621 Y106.41 E.01219
G1 X103.55 Y106.096 E.01224
G1 X103.508 Y105.773 E.01238
G1 X103.495 Y105.472 E.01145
G1 X103.495 Y101.227 E.16134
G1 X109.015 Y101.222 E.2098
G1 X113.173 Y101.241 E.15803
G1 X113.154 Y101.618 E.01435
G1 X113.242 Y101.566 E.00388
G1 X113.584 Y101.41 E.01429
G1 X113.939 Y101.289 E.01425
G1 X114.321 Y101.199 E.01492
G1 X114.798 Y101.146 E.01824
G1 X115.071 Y101.134 E.01039
M73 P1 R26
G1 X115.457 Y101.151 E.01468
G1 X115.835 Y101.203 E.0145
G1 X116.202 Y101.289 E.01433
G1 X116.558 Y101.41 E.01429
G1 X116.901 Y101.567 E.01434
G1 X117.228 Y101.762 E.01447
G1 X117.549 Y102.004 E.01528
G1 X117.775 Y102.236 E.01231
G1 X117.973 Y102.029 E.01089
G1 X118.167 Y101.864 E.00968
G1 X118.529 Y101.618 E.01663
G1 X118.953 Y101.411 E.01793
G1 X119.399 Y101.264 E.01785
G1 X119.665 Y101.206 E.01035
G1 X119.929 Y101.165 E.01015
G1 X120.292 Y101.138 E.01383
G1 X120.825 Y101.149 E.02026
G1 X121.217 Y101.203 E.01504
G1 X121.584 Y101.289 E.01433
G1 X121.94 Y101.41 E.01429
G1 X122.281 Y101.566 E.01425
G1 X122.377 Y101.623 E.00424
G1 X122.363 Y101.233 E.01483
G1 X124.552 Y101.232 E.0832
G1 X124.99 Y101.253 E.01667
G1 X126.602 Y101.415 E.06157
G1 X126.872 Y101.317 E.01092
G1 X127.189 Y101.234 E.01245
G1 X127.522 Y101.176 E.01285
G1 X128.189 Y101.134 E.0254
G1 X128.689 Y101.158 E.01903
G1 X129.146 Y101.227 E.01757
G1 X129.407 Y101.291 E.01021
G1 X129.805 Y101.428 E.016
G1 X130.046 Y101.543 E.01015
G1 X130.424 Y101.774 E.01684
G1 X130.753 Y102.082 E.01713
G1 X130.872 Y101.959 E.0065
G1 X131.196 Y101.713 E.01546
G1 X131.544 Y101.514 E.01524
G1 X131.927 Y101.352 E.01581
G1 X132.321 Y101.237 E.0156
G1 X132.577 Y101.186 E.00992
G1 X133.087 Y101.137 E.01947
G1 X133.615 Y101.149 E.02007
G1 X134.005 Y101.203 E.01496
G1 X134.372 Y101.289 E.01433
G1 X134.727 Y101.41 E.01425
G1 X135.068 Y101.565 E.01424
G1 X135.21 Y101.649 E.00627
G1 X135.193 Y101.232 E.01586
G1 X139.385 Y101.232 E.15932
G1 X139.37 Y101.612 E.01445
G1 X139.732 Y101.427 E.01545
G1 X140.071 Y101.3 E.01376
G1 X140.438 Y101.204 E.01442
G1 X140.909 Y101.145 E.01804
G1 X141.193 Y101.14 E.0108
G1 X141.864 Y101.199 E.0256
G1 X142.119 Y101.349 E.01124
G1 X142.383 Y101.432 E.01052
G1 X142.768 Y101.31 E.01535
G1 X143.437 Y101.275 E.02546
G1 X144.327 Y101.414 E.03424
G1 X145.217 Y101.275 E.03424
G1 X145.884 Y101.309 E.02538
G1 X146.136 Y101.388 E.01004
G1 X146.476 Y101.328 E.01312
G1 X146.58 Y101.266 E.0046
G1 X146.936 Y101.187 E.01386
G1 X146.936 Y100.603 E.0222
G1 X148.963 Y101.45 E.08349
G1 X150.277 Y101.267 E.05042
G1 X150.715 Y101.235 E.01669
G1 X151.167 Y101.227 E.01718
G1 X151.646 Y101.26 E.01825
G1 X152.155 Y101.38 E.01988
G1 X152.568 Y101.568 E.01725
M204 P3000
G1 X152.195 Y101.9 F18000
M204 P500
G1 F2400
G1 X152.391 Y101.99 E.0082
G1 X152.593 Y102.126 E.00926
G1 X152.764 Y102.274 E.0086
G1 X152.916 Y102.441 E.00858
G1 X153.08 Y102.685 E.01117
G1 X153.079 Y101.684 E.03804
G1 X156.208 Y101.678 E.11892
G1 X157.605 Y101.691 E.0531
G1 X158.117 Y101.73 E.01952
G1 X159.047 Y101.878 E.03579
G1 X159.976 Y101.73 E.03575
G1 X160.489 Y101.691 E.01955
G1 X161.887 Y101.678 E.05314
G1 X161.883 Y104.013 E.08874
G1 X161.863 Y104.529 E.01963
G1 X161.79 Y105.069 E.02071
G1 X161.751 Y105.226 E.00615
G1 X161.93 Y105.168 E.00715
G1 X162.418 Y105.108 E.01869
G1 X162.418 Y101.684 E.13013
G1 X165.616 Y101.684 E.12154
G1 X165.601 Y104.448 E.10505
G1 X165.714 Y104.327 E.00629
G1 X165.963 Y104.13 E.01207
G1 X166.224 Y103.969 E.01166
G1 X166.499 Y103.84 E.01154
G1 X166.785 Y103.741 E.0115
G1 X167.081 Y103.671 E.01156
G1 X167.384 Y103.629 E.01163
G1 X167.675 Y103.616 E.01107
G1 X168.306 Y103.616 E.02398
G1 X168.306 Y101.684 E.07343
G1 X171.592 Y101.684 E.12489
G1 X171.592 Y109.938 E.3137
G1 X167.675 Y109.938 E.14887
G1 X167.384 Y109.925 E.01107
G1 X167.081 Y109.884 E.01162
G1 X166.785 Y109.814 E.01156
G1 X166.5 Y109.715 E.01147
G1 X166.228 Y109.588 E.01141
G1 X165.969 Y109.433 E.01147
G1 X165.728 Y109.247 E.01157
G1 X165.502 Y109.029 E.01193
G1 X165.303 Y108.771 E.01238
G1 X165.137 Y108.478 E.0128
G1 X165.021 Y108.155 E.01304
G1 X164.979 Y107.939 E.00836
G1 X164.413 Y108.113 E.02251
G1 X163.801 Y108.113 E.02326
G1 X163.394 Y107.988 E.01618
G1 X162.845 Y108.098 E.02128
G1 X162.627 Y108.172 E.00875
G1 X161.972 Y108.104 E.02503
G1 X161.739 Y108.038 E.0092
G1 X161.789 Y108.207 E.0067
G1 X161.865 Y108.697 E.01885
G1 X161.904 Y110.064 E.05198
G1 X158.68 Y110.067 E.12253
G1 X158.704 Y108.706 E.05173
G1 X158.774 Y108.2 E.01941
G1 X158.831 Y108.031 E.00678
G1 X158.133 Y108.14 E.02685
G1 X157.57 Y108.111 E.02143
G1 X157.268 Y108.015 E.01204
G1 X156.735 Y108.111 E.02058
G1 X156.622 Y108.178 E.00499
G1 X156.314 Y108.247 E.012
G1 X155.887 Y108.282 E.01628
G1 X155.589 Y108.27 E.01134
G1 X155.308 Y108.232 E.01078
G1 X155.033 Y108.166 E.01075
G1 X154.767 Y108.072 E.01072
G1 X154.507 Y107.946 E.01098
G1 X154.261 Y107.784 E.01119
G1 X154.097 Y107.641 E.00827
G1 X154.161 Y108.086 E.01709
G1 X153.375 Y108.137 E.02994
G1 X153.377 Y109.662 E.05796
G1 X150.182 Y109.662 E.12143
G1 X150.182 Y108.173 E.05659
G1 X149.086 Y108.148 E.04167
G1 X149.14 Y107.522 E.02388
G1 X149.068 Y107.595 E.0039
G1 X148.855 Y107.766 E.01038
G1 X148.622 Y107.909 E.01039
G1 X148.378 Y108.026 E.01028
G1 X148.123 Y108.12 E.01033
G1 X147.856 Y108.191 E.0105
G1 X147.58 Y108.242 E.01067
G1 X147.293 Y108.273 E.01097
G1 X146.995 Y108.283 E.01133
G1 X146.68 Y108.272 E.01198
G1 X146.376 Y108.24 E.01162
G1 X146.083 Y108.185 E.01133
G1 X145.801 Y108.107 E.01112
G1 X145.531 Y108.005 E.01097
G1 X145.274 Y107.878 E.0109
G1 X145.032 Y107.724 E.0109
G1 X144.807 Y107.541 E.01102
G1 X144.675 Y107.4 E.00734
G1 X144.683 Y109.941 E.09657
G1 X141.455 Y109.929 E.12269
G1 X141.532 Y108.515 E.05382
G1 X141.588 Y108.208 E.01186
G1 X141.475 Y108.26 E.00473
G1 X140.856 Y108.268 E.02353
G1 X140.518 Y108.219 E.01298
G1 X140.21 Y108.138 E.0121
G1 X139.915 Y108.028 E.01197
G1 X139.634 Y107.888 E.01193
G1 X139.368 Y107.719 E.01198
G1 X139.118 Y107.52 E.01214
G1 X138.875 Y107.27 E.01325
G1 X138.887 Y109.938 E.1014
G1 X135.691 Y109.938 E.12147
